src/com/lilithsthrone/res/combat/spell/vacuum.svg

<?xml version="1.0" encoding="UTF-8" standalone="no"?>
<!-- Created with Inkscape (http://www.inkscape.org/) -->

<svg
   xmlns:dc="http://purl.org/dc/elements/1.1/"
   xmlns:cc="http://creativecommons.org/ns#"
   xmlns:rdf="http://www.w3.org/1999/02/22-rdf-syntax-ns#"
   xmlns:svg="http://www.w3.org/2000/svg"
   xmlns="http://www.w3.org/2000/svg"
   xmlns:sodipodi="http://sodipodi.sourceforge.net/DTD/sodipodi-0.dtd"
   xmlns:inkscape="http://www.inkscape.org/namespaces/inkscape"
   viewBox="0 0 256 256"
   id="svg2"
   version="1.1"
   inkscape:version="0.91 r13725"
   sodipodi:docname="vacuum.svg">
  <defs
     id="defs4">
    <inkscape:path-effect
       cusp_linecap_type="round"
       end_linecap_type="zerowidth"
       miter_limit="4"
       linejoin_type="round"
       start_linecap_type="zerowidth"
       interpolator_beta="0.2"
       interpolator_type="Linear"
       sort_points="true"
       offset_points="0.25601354,8.1684104"
       is_visible="true"
       id="path-effect4152"
       effect="powerstroke" />
    <inkscape:path-effect
       effect="powerstroke"
       id="path-effect4154"
       is_visible="true"
       offset_points="0,0.5"
       sort_points="true"
       interpolator_type="CubicBezierJohan"
       interpolator_beta="0.2"
       start_linecap_type="zerowidth"
       linejoin_type="round"
       miter_limit="4"
       end_linecap_type="zerowidth"
       cusp_linecap_type="round" />
    <inkscape:path-effect
       effect="powerstroke"
       id="path-effect4150"
       is_visible="true"
       offset_points="0,0.5"
       sort_points="true"
       interpolator_type="CubicBezierJohan"
       interpolator_beta="0.2"
       start_linecap_type="zerowidth"
       linejoin_type="round"
       miter_limit="4"
       end_linecap_type="zerowidth"
       cusp_linecap_type="round" />
    <inkscape:path-effect
       effect="powerstroke"
       id="path-effect4146"
       is_visible="true"
       offset_points="0.34598408,6.7401315"
       sort_points="true"
       interpolator_type="Linear"
       interpolator_beta="0.2"
       start_linecap_type="zerowidth"
       linejoin_type="round"
       miter_limit="4"
       end_linecap_type="zerowidth"
       cusp_linecap_type="round" />
    <inkscape:path-effect
       effect="powerstroke"
       id="path-effect4146-2"
       is_visible="true"
       offset_points="0.34598408,6.7401315"
       sort_points="true"
       interpolator_type="Linear"
       interpolator_beta="0.2"
       start_linecap_type="zerowidth"
       linejoin_type="round"
       miter_limit="4"
       end_linecap_type="zerowidth"
       cusp_linecap_type="round" />
    <inkscape:path-effect
       effect="powerstroke"
       id="path-effect4146-2-7"
       is_visible="true"
       offset_points="0.34983355,5.1754019"
       sort_points="true"
       interpolator_type="Linear"
       interpolator_beta="0.2"
       start_linecap_type="zerowidth"
       linejoin_type="round"
       miter_limit="4"
       end_linecap_type="zerowidth"
       cusp_linecap_type="round" />
    <inkscape:path-effect
       effect="powerstroke"
       id="path-effect4146-2-4"
       is_visible="true"
       offset_points="0.34598408,6.7401315"
       sort_points="true"
       interpolator_type="Linear"
       interpolator_beta="0.2"
       start_linecap_type="zerowidth"
       linejoin_type="round"
       miter_limit="4"
       end_linecap_type="zerowidth"
       cusp_linecap_type="round" />
    <inkscape:path-effect
       effect="powerstroke"
       id="path-effect4146-2-4-1"
       is_visible="true"
       offset_points="0.25601354,11.696941"
       sort_points="true"
       interpolator_type="Linear"
       interpolator_beta="0.2"
       start_linecap_type="zerowidth"
       linejoin_type="round"
       miter_limit="4"
       end_linecap_type="zerowidth"
       cusp_linecap_type="round" />
    <inkscape:path-effect
       effect="powerstroke"
       id="path-effect4146-2-4-1-0"
       is_visible="true"
       offset_points="0.25601354,11.696941"
       sort_points="true"
       interpolator_type="Linear"
       interpolator_beta="0.2"
       start_linecap_type="zerowidth"
       linejoin_type="round"
       miter_limit="4"
       end_linecap_type="zerowidth"
       cusp_linecap_type="round" />
    <inkscape:path-effect
       effect="powerstroke"
       id="path-effect4146-2-4-1-1"
       is_visible="true"
       offset_points="0.24778369,14.766099"
       sort_points="true"
       interpolator_type="Linear"
       interpolator_beta="0.2"
       start_linecap_type="zerowidth"
       linejoin_type="round"
       miter_limit="4"
       end_linecap_type="zerowidth"
       cusp_linecap_type="round" />
    <inkscape:path-effect
       effect="powerstroke"
       id="path-effect4146-2-4-1-3"
       is_visible="true"
       offset_points="0.25601354,11.696941"
       sort_points="true"
       interpolator_type="Linear"
       interpolator_beta="0.2"
       start_linecap_type="zerowidth"
       linejoin_type="round"
       miter_limit="4"
       end_linecap_type="zerowidth"
       cusp_linecap_type="round" />
    <inkscape:path-effect
       cusp_linecap_type="round"
       end_linecap_type="zerowidth"
       miter_limit="4"
       linejoin_type="round"
       start_linecap_type="zerowidth"
       interpolator_beta="0.2"
       interpolator_type="Linear"
       sort_points="true"
       offset_points="0.25601354,8.1684104"
       is_visible="true"
       id="path-effect4152-6"
       effect="powerstroke" />
    <inkscape:path-effect
       effect="powerstroke"
       id="path-effect4146-2-4-1-7"
       is_visible="true"
       offset_points="0.25601354,11.696941"
       sort_points="true"
       interpolator_type="Linear"
       interpolator_beta="0.2"
       start_linecap_type="zerowidth"
       linejoin_type="round"
       miter_limit="4"
       end_linecap_type="zerowidth"
       cusp_linecap_type="round" />
    <inkscape:path-effect
       cusp_linecap_type="round"
       end_linecap_type="zerowidth"
       miter_limit="4"
       linejoin_type="round"
       start_linecap_type="zerowidth"
       interpolator_beta="0.2"
       interpolator_type="Linear"
       sort_points="true"
       offset_points="0.25601354,8.1684104"
       is_visible="true"
       id="path-effect4152-9"
       effect="powerstroke" />
  </defs>
  <sodipodi:namedview
     id="base"
     pagecolor="#ffffff"
     bordercolor="#666666"
     borderopacity="1.0"
     inkscape:pageopacity="0.0"
     inkscape:pageshadow="2"
     inkscape:zoom="1.4"
     inkscape:cx="-16.189513"
     inkscape:cy="120.17049"
     inkscape:document-units="px"
     inkscape:current-layer="layer2"
     showgrid="false"
     units="px"
     inkscape:window-width="2560"
     inkscape:window-height="1388"
     inkscape:window-x="-8"
     inkscape:window-y="-8"
     inkscape:window-maximized="1" />
  <metadata
     id="metadata7">
    <rdf:RDF>
      <cc:Work
         rdf:about="">
        <dc:format>image/svg+xml</dc:format>
        <dc:type
           rdf:resource="http://purl.org/dc/dcmitype/StillImage" />
        <dc:title></dc:title>
      </cc:Work>
    </rdf:RDF>
  </metadata>
  <g
     inkscape:groupmode="layer"
     id="layer2"
     inkscape:label="Layer 2"
     style="display:inline">
    <path
       style="fill:#535d6c;fill-rule:evenodd;stroke:none;stroke-width:1px;stroke-linecap:butt;stroke-linejoin:miter;stroke-opacity:1"
       d="M 211.10452,49.440314 C 218.92065,42.607389 124.6323,5.4274561 79.557716,73.254599 83.358317,52.823603 92.207862,35.204521 103.42775,18.905559 53.636638,32.895236 35.471585,105.21422 56.368083,144.43629 42.269986,136.68395 31.734923,118.27984 21.993391,97.503449 19.268673,131.45885 35.916128,193.76682 107.84413,200.7106 c -20.05207,11.20072 -39.622677,7.46302 -59.299211,7.01174 10.323937,9.50733 83.604561,44.62366 132.196831,-22.35535 -3.51059,20.08718 -13.63738,36.98331 -23.49736,54.00814 24.62077,-18.41864 72.56797,-51.38897 45.97342,-125.2216 12.05561,10.25743 24.2572,17.23662 35.46095,46.62372 2.86887,-20.37674 -10.70923,-101.476953 -86.58022,-102.882147 19.30176,-8.356324 39.14634,-8.519256 59.00598,-8.454789 z"
       id="path4169"
       inkscape:connector-curvature="0"
       sodipodi:nodetypes="ccccccccccccc" />
    <path
       sodipodi:nodetypes="ccccccccccccc"
       inkscape:connector-curvature="0"
       id="path4173"
       d="M 178.04805,82.079118 C 182.6634,78.044345 126.98708,56.089967 100.37098,96.141217 102.6152,84.076917 107.84077,73.673026 114.466,64.048653 85.064847,72.309418 74.338562,115.01306 86.677735,138.17329 78.35295,133.59562 72.132114,122.72817 66.379819,110.45991 c -1.608915,20.05033 8.221244,56.84256 50.694011,60.9428 -11.84055,6.61392 -23.396797,4.40684 -35.015596,4.14037 6.096185,5.61398 49.367656,26.34982 78.060906,-13.20061 -2.07296,11.86127 -8.05273,21.83827 -13.87496,31.89127 14.53832,-10.87603 42.85067,-30.34467 27.14685,-73.94211 7.11871,6.0569 14.32363,10.17805 20.93933,27.53084 1.69404,-12.03225 -6.32369,-59.92113 -51.12474,-60.750882 11.39749,-4.934325 23.11551,-5.030535 34.84243,-4.99247 z"
       style="fill:#373e48;fill-rule:evenodd;stroke:none;stroke-width:1px;stroke-linecap:butt;stroke-linejoin:miter;stroke-opacity:1" />
    <ellipse
       style="opacity:1;fill:#1c1f24;fill-opacity:1;stroke:none;stroke-width:6;stroke-linecap:round;stroke-linejoin:round;stroke-miterlimit:4;stroke-dasharray:none;stroke-dashoffset:0;stroke-opacity:1"
       id="path4171"
       cx="123.92848"
       cy="-134.88071"
       rx="28.928572"
       ry="28.571428"
       transform="matrix(-0.0444872,0.99900995,-0.99900995,-0.0444872,0,0)" />
  </g>
</svg>

<svg xmlns="http://www.w3.org/2000/svg" viewBox="0 0 256 256">
    <path fill="#535d6c" fill-rule="evenodd" d="M211.105 49.44c7.816-6.833-86.473-44.013-131.547 23.815 3.8-20.431 12.65-38.05 23.87-54.35-49.791 13.99-67.956 86.31-47.06 125.531-14.098-7.752-24.633-26.156-34.375-46.933-2.724 33.956 13.923 96.264 85.851 103.208-20.052 11.2-39.623 7.463-59.3 7.011 10.325 9.508 83.605 44.624 132.198-22.355-3.51 20.087-13.638 36.983-23.498 54.008 24.621-18.419 72.568-51.389 45.974-125.221 12.055 10.257 24.257 17.236 35.46 46.623 2.87-20.376-10.708-101.477-86.58-102.882 19.302-8.356 39.147-8.52 59.007-8.455z"/>
    <path fill="#373e48" fill-rule="evenodd" d="M178.048 82.08c4.615-4.036-51.06-25.99-77.677 14.061 2.244-12.064 7.47-22.468 14.095-32.092-29.401 8.26-40.127 50.964-27.788 74.124-8.325-4.577-14.546-15.445-20.298-27.713-1.61 20.05 8.221 56.842 50.694 60.943-11.84 6.614-23.397 4.407-35.016 4.14 6.096 5.614 49.368 26.35 78.061-13.2-2.073 11.86-8.053 21.838-13.875 31.89 14.539-10.875 42.85-30.344 27.147-73.941 7.119 6.057 14.324 10.178 20.94 27.53 1.693-12.032-6.324-59.92-51.125-60.75 11.397-4.935 23.115-5.03 34.842-4.993z"/>
    <ellipse cx="123.928" cy="-134.881" fill="#1c1f24" rx="28.929" ry="28.571" transform="rotate(92.55)"/>
</svg>
